public/svg/akfaMedline.svg

<svg width="163" height="98" viewBox="0 0 163 98" fill="none" xmlns="http://www.w3.org/2000/svg">
<path d="M0 16C0 7.1634 7.1634 0 16 0H146.857C155.694 0 162.857 7.1634 162.857 16V81.7143C162.857 90.551 155.694 97.714 146.857 97.714H16C7.1635 97.714 0 90.551 0 81.7143V16Z" fill="#D02213"/>
<path fill-rule="evenodd" clip-rule="evenodd" d="M112.391 32.0146C121.709 32.0146 129.267 39.563 129.267 48.8673C129.267 58.1716 121.709 65.72 112.391 65.72C108.086 65.72 104.145 64.1053 101.174 61.4412C97.718 58.2725 93.11 56.3349 88.037 56.3349C82.055 56.3349 76.719 59.0193 73.162 63.2577C69.059 68.1419 62.895 71.2501 56.0028 71.2501C43.6135 71.2501 33.5889 61.2192 33.5889 48.8673C33.5687 36.4952 43.6135 26.4644 55.9826 26.4644C62.875 26.4644 69.039 29.5725 73.142 34.4568C76.699 38.6952 82.055 41.3795 88.017 41.3795C93.07 41.3795 97.698 39.4419 101.154 36.2732C104.145 33.6293 108.086 32.0146 112.391 32.0146ZM41.4712 54.135C41.2084 54.135 40.9861 54.2359 40.8042 54.4983C40.6829 54.2561 40.4606 54.135 40.2181 54.135C39.9958 54.135 39.7734 54.2158 39.632 54.4378V54.1956H39.2277V56.4762H39.632V55.0836C39.632 54.6396 39.9149 54.5185 40.117 54.5185C40.3393 54.5185 40.5212 54.6396 40.5212 54.9625V56.4964H40.9255V55.0836C40.9255 54.6396 41.2084 54.5185 41.4105 54.5185C41.6126 54.5185 41.8147 54.6396 41.8147 54.9625V56.4964H42.219V54.9625C42.1785 54.4176 41.8754 54.135 41.4712 54.135ZM43.0274 55.5276H44.907C44.907 55.4671 44.9272 55.4065 44.9272 55.346C44.9272 54.7001 44.5028 54.135 43.7954 54.135C43.088 54.135 42.603 54.6598 42.603 55.346C42.603 56.0322 43.0678 56.557 43.7954 56.557C44.3007 56.557 44.7049 56.2744 44.8262 55.8707H44.4017C44.3007 56.0524 44.0784 56.2139 43.7752 56.2139C43.3912 56.1735 43.088 55.9313 43.0274 55.5276ZM43.0274 55.1643H44.523C44.4624 54.7203 44.139 54.4983 43.7954 54.4983C43.371 54.4983 43.088 54.7809 43.0274 55.1643ZM47.2515 53.2672V54.579C47.0696 54.2965 46.7664 54.135 46.3824 54.135C45.7559 54.135 45.2304 54.6598 45.2304 55.346C45.2304 56.0322 45.7559 56.557 46.3824 56.557C46.7664 56.557 47.0696 56.3753 47.2515 56.1129V56.4964H47.6557V53.2672H47.2515ZM46.443 56.1533C46.9079 56.1533 47.2515 55.8102 47.2515 55.3258C47.2515 54.8616 46.9079 54.4983 46.443 54.4983C45.9782 54.4983 45.6346 54.8414 45.6346 55.3258C45.6144 55.8102 45.9782 56.1533 46.443 56.1533ZM48.262 53.7717H48.6663V53.2672H48.262V53.7717ZM48.262 56.4762H48.6663V54.1956H48.262V56.4762ZM51.4554 55.7093H51.0309C50.9299 55.9717 50.6671 56.1533 50.3438 56.1533C49.8991 56.1533 49.5353 55.8102 49.5353 55.346C49.5353 54.8818 49.8789 54.5387 50.3438 54.5387C50.6671 54.5387 50.9299 54.7203 51.0309 54.9827H51.4554C51.3341 54.4983 50.8895 54.1552 50.3438 54.1552C49.6566 54.1552 49.1311 54.68 49.1311 55.3662C49.1311 56.0524 49.6364 56.5771 50.3438 56.5771C50.8692 56.5368 51.3341 56.1937 51.4554 55.7093ZM52.7084 54.135C52.2032 54.135 51.8192 54.4579 51.8192 54.9222H52.2032C52.2032 54.6396 52.4255 54.5185 52.6882 54.5185C52.951 54.5185 53.1935 54.6598 53.1935 55.0231V55.346C53.052 55.1845 52.8095 55.0836 52.5063 55.0836C52.0819 55.0836 51.6979 55.3258 51.6979 55.8102C51.6979 56.2946 52.0819 56.5368 52.5063 56.5368C52.8095 56.5368 53.0318 56.4359 53.1935 56.234V56.4762H53.5775V55.0029C53.5977 54.4579 53.2137 54.135 52.7084 54.135ZM52.6478 56.1937C52.9914 56.1937 53.2137 56.0322 53.2137 55.8102C53.2137 55.568 52.9712 55.4065 52.6478 55.4065C52.284 55.4065 52.1223 55.568 52.1223 55.8102C52.1223 56.0322 52.284 56.1937 52.6478 56.1937ZM54.1434 56.4762H54.5476V53.1864H54.1434V56.4762ZM58.4888 55.7093H58.0643C57.9633 55.9717 57.7005 56.1533 57.3772 56.1533C56.9325 56.1533 56.5687 55.8102 56.5687 55.346C56.5687 54.8818 56.9123 54.5387 57.3772 54.5387C57.7005 54.5387 57.9633 54.7203 58.0643 54.9827H58.4888C58.3675 54.4983 57.9229 54.1552 57.3772 54.1552C56.69 54.1552 56.1645 54.68 56.1645 55.3662C56.1645 56.0524 56.6698 56.5771 57.3772 56.5771C57.9229 56.5368 58.3675 56.1937 58.4888 55.7093ZM59.1961 55.5276H61.076C61.076 55.4671 61.096 55.4065 61.096 55.346C61.096 54.7001 60.672 54.135 59.9642 54.135C59.2568 54.135 58.7717 54.6598 58.7717 55.346C58.7717 56.0322 59.2366 56.557 59.9642 56.557C60.469 56.557 60.874 56.2744 60.995 55.8707H60.57C60.469 56.0524 60.247 56.2139 59.944 56.2139C59.5802 56.1735 59.277 55.9313 59.1961 55.5276ZM59.1961 55.1643H60.692C60.631 54.7203 60.308 54.4983 59.9642 54.4983C59.5397 54.4983 59.2568 54.7809 59.1961 55.1643ZM62.612 54.135C62.329 54.135 62.107 54.2359 61.925 54.4781V54.1956H61.52V56.4762H61.925V55.1643C61.925 54.68 62.208 54.4983 62.491 54.4983C62.773 54.4983 62.976 54.6598 62.976 55.0029V56.4762H63.38V54.9827C63.38 54.4579 63.036 54.135 62.612 54.135ZM65.017 54.1956H64.572V53.469H64.168V54.1956H63.723V54.579H64.168V56.4762H64.572V54.579H65.017V54.1956ZM65.805 54.5387V54.1956H65.401V56.4762H65.805V55.2451C65.805 54.7203 66.149 54.5387 66.492 54.5589V54.135C66.209 54.1552 65.967 54.2561 65.805 54.5387ZM67.038 55.5276H68.918C68.918 55.4671 68.938 55.4065 68.938 55.346C68.938 54.7001 68.513 54.135 67.806 54.135C67.099 54.135 66.614 54.6598 66.614 55.346C66.614 56.0322 67.078 56.557 67.806 56.557C68.311 56.557 68.715 56.2744 68.837 55.8707H68.412C68.311 56.0524 68.089 56.2139 67.786 56.2139C67.422 56.1735 67.099 55.9313 67.038 55.5276ZM67.038 55.1643H68.534C68.473 54.7203 68.15 54.4983 67.806 54.4983C67.382 54.4983 67.099 54.7809 67.038 55.1643ZM39.5511 45.961H42.7444L42.7849 45.8601L42.8051 45.961H45.9782V45.6582H39.2277V52.0158H45.9782V51.37H45.291L44.9474 51.047H45.958V50.7241H44.6039L44.3007 50.4416C43.9369 50.2801 43.6539 49.9774 43.4114 49.5939C43.371 49.5535 43.3104 49.493 43.2497 49.4526L43.1689 49.3719C42.603 48.8875 41.9764 48.5242 41.5722 48.3829C40.9053 49.2508 40.2787 49.715 40.117 49.7755C39.9958 49.8159 39.8341 49.6544 39.9149 49.5737C40.117 49.3719 41.1074 48.7058 41.3499 48.3829C41.3701 48.3627 41.3903 48.3425 41.4105 48.3224L41.3095 48.282L41.4307 48.3022C41.5318 48.2013 41.6126 48.1004 41.6935 47.9994L41.552 47.8783H41.7945C41.8754 47.7774 41.9562 47.6563 42.0169 47.5554H41.2286L40.885 47.2325H42.1988C42.2594 47.1316 42.2998 47.0307 42.3604 46.9096H40.5415L40.1979 46.5866H42.4817C42.5221 46.4857 42.5626 46.3848 42.603 46.2637H39.8947L39.5511 45.961ZM42.8657 46.2637C42.8859 46.3646 42.9061 46.4857 42.9263 46.5866H45.9782V46.2637H42.8657ZM42.4817 46.9096C42.4413 47.0105 42.3807 47.1114 42.32 47.2325H42.6232C42.603 47.1114 42.5828 47.0105 42.5626 46.9096H42.4817ZM43.0072 46.9096C43.0274 47.0105 43.0678 47.1316 43.088 47.2325H45.9782V46.9096H43.0072ZM42.1381 47.5352C42.0775 47.6361 42.0169 47.7371 41.936 47.8582H42.7849C42.7647 47.7572 42.7242 47.6361 42.704 47.5352H42.1381ZM43.1689 47.5352C43.2093 47.6361 43.2295 47.7572 43.2699 47.8582H45.9782V47.5352H43.1689ZM41.7945 48.06C41.7339 48.1609 41.6733 48.2416 41.6126 48.3224C41.8147 48.3829 42.0977 48.4636 42.3807 48.6049L42.2594 48.4838H42.9668C42.9263 48.3829 42.9061 48.282 42.8657 48.1609H41.9158L41.7945 48.06ZM43.3912 48.1811C43.4316 48.282 43.472 48.4031 43.5125 48.504H45.9782V48.1811H43.3912ZM42.8051 48.8068C42.9061 48.8673 43.0274 48.9279 43.1285 48.9884C43.1082 48.9279 43.088 48.8673 43.0678 48.8068H42.8051ZM43.6539 48.8068C43.7146 48.9279 43.755 49.0288 43.8156 49.1297H45.9782V48.8068H43.6539ZM43.9975 49.4526C44.0784 49.5737 44.139 49.6746 44.2198 49.7755H45.9782V49.4526H43.9975ZM44.4826 50.0783C44.6039 50.1994 44.7251 50.3205 44.8262 50.4012H45.9782V50.0783H44.4826ZM56.6091 43.4381V51.9956H59.0951V50.0379L59.5802 49.6746L61.177 51.9956H63.905L61.278 48.2215L63.905 45.638H61.076L59.0345 47.6361V43.4381H56.6091ZM66.027 45.638H64.956V47.3536H66.027L66.007 51.9956H68.918V47.3536H70.999V45.638H68.938V45.5775C68.978 45.2546 69.201 45.0527 69.746 45.0527H70.999V43.4583H69.585C67.179 43.4583 66.149 44.1647 66.027 45.638ZM48.1003 45.638V47.3536H52.0011C52.5063 47.3536 52.7691 47.5352 52.7691 47.9591C51.5564 47.9591 50.364 47.9591 49.1513 47.9591C48.4641 47.9994 47.7568 48.4031 47.7365 49.0489V50.926C47.8376 51.4709 48.4237 52.0158 49.3736 52.0158H53.8807C54.9316 52.0158 55.538 51.7333 55.538 50.7443C55.538 49.8159 55.538 48.4838 55.538 47.5554C55.538 46.7683 54.9316 45.6582 53.0318 45.6582C51.4351 45.638 49.7172 45.638 48.1003 45.638ZM50.8086 49.5535C50.5863 49.5535 50.4044 49.715 50.4044 49.937C50.4044 50.159 50.5863 50.3205 50.8086 50.3205H52.4053C52.6276 50.3205 52.7893 50.1388 52.8095 49.937V49.5535H50.8086ZM72.414 45.638V47.3536H76.315C76.82 47.3536 77.083 47.5352 77.083 47.9591C75.87 47.9591 74.678 47.9591 73.465 47.9591C72.778 47.9994 72.071 48.4031 72.05 49.0489V50.926C72.151 51.4709 72.737 52.0158 73.687 52.0158H78.194C79.245 52.0158 79.852 51.7333 79.852 50.7443C79.852 49.8159 79.852 48.4838 79.852 47.5554C79.852 46.7683 79.245 45.6582 77.346 45.6582C75.749 45.638 74.031 45.638 72.414 45.638ZM75.143 49.5535C74.92 49.5535 74.738 49.715 74.738 49.937C74.738 50.159 74.92 50.3205 75.143 50.3205H76.739C76.962 50.3205 77.123 50.1388 77.143 49.937V49.5535H75.143ZM90.038 45.9004H87.411L87.027 47.4343C86.845 48.2215 86.643 48.9884 86.521 49.7755C86.4 48.9884 86.238 48.2416 86.056 47.4747L85.672 45.9004H82.984V51.9956H84.743V50.825C84.743 49.4324 84.743 49.0691 84.682 47.616L85.834 51.9956H87.229L88.381 47.616C88.34 48.7664 88.32 49.9168 88.32 51.0874V51.9956H90.078V45.9004H90.038ZM96.101 45.9004H91.049V51.9956H96.182V50.4416H92.888V49.5535H95.798V48.1407H92.888V47.3738H96.101V45.9004ZM97.112 45.9004V51.9956H99.8C101.801 51.9956 102.912 50.9663 102.912 48.9278C102.912 47.0307 101.7 45.9004 99.84 45.9004H97.112ZM98.931 47.4343V50.4617H99.658C100.568 50.4617 101.033 49.8966 101.033 48.9682C101.033 47.9389 100.447 47.4343 99.477 47.4343H98.931ZM108.309 50.4012H105.6V45.9004H103.741V51.9956H108.329V50.4012H108.309ZM110.997 45.9004H109.137V51.9956H110.997V45.9004ZM117.484 45.9004H115.686V47.9187C115.686 48.3829 115.706 48.8673 115.746 49.3113C115.585 48.9279 115.362 48.5242 115.14 48.1609L113.826 45.8802H111.987V51.9755H113.786V49.8563C113.786 49.3921 113.786 48.9279 113.725 48.4636C113.867 48.7866 114.008 49.0691 114.19 49.3719L115.706 51.9553H117.505V45.9004H117.484ZM123.528 45.9004H118.475V51.9956H123.608V50.4416H120.314V49.5535H123.224V48.1407H120.314V47.3738H123.528V45.9004Z" fill="white"/>
</svg>

<svg xmlns="http://www.w3.org/2000/svg" width="163" height="98" fill="none" xmlns:v="https://vecta.io/nano"><path d="M0 16C0 7.163 7.163 0 16 0h130.857c8.837 0 16 7.163 16 16v65.714c0 8.837-7.163 16-16 16H16c-8.836 0-16-7.163-16-16V16z" fill="#d02213"/><path fill-rule="evenodd" d="M112.391 32.015c9.318 0 16.876 7.548 16.876 16.853s-7.558 16.853-16.876 16.853c-4.305 0-8.246-1.615-11.217-4.279-3.456-3.169-8.064-5.106-13.137-5.106-5.982 0-11.318 2.684-14.875 6.923-4.103 4.884-10.267 7.992-17.159 7.992-12.389 0-22.414-10.031-22.414-22.383-.02-12.372 10.025-22.403 22.394-22.403 6.892 0 13.056 3.108 17.159 7.992a19.38 19.38 0 0 0 14.875 6.923c5.053 0 9.681-1.938 13.137-5.106a16.93 16.93 0 0 1 11.237-4.259zm-70.92 22.12c-.263 0-.485.101-.667.363-.121-.242-.344-.363-.586-.363-.222 0-.445.081-.586.303v-.242h-.404v2.281h.404v-1.393c0-.444.283-.565.485-.565.222 0 .404.121.404.444v1.534h.404v-1.413c0-.444.283-.565.485-.565s.404.121.404.444v1.534h.404v-1.534c-.041-.545-.344-.828-.748-.828zm1.556 1.393h1.88c0-.06.02-.121.02-.182 0-.646-.424-1.211-1.132-1.211s-1.192.525-1.192 1.211.465 1.211 1.192 1.211c.505 0 .91-.283 1.031-.686h-.425c-.101.182-.323.343-.626.343-.384-.04-.687-.283-.748-.686zm0-.363h1.496c-.061-.444-.384-.666-.728-.666a.75.75 0 0 0-.768.666zm4.224-1.897v1.312c-.182-.282-.485-.444-.869-.444-.626 0-1.152.525-1.152 1.211s.525 1.211 1.152 1.211c.384 0 .687-.182.869-.444v.383h.404v-3.229h-.404zm-.809 2.886c.465 0 .809-.343.809-.828 0-.464-.344-.828-.809-.828s-.808.343-.808.828c-.02.484.344.828.808.828zm1.819-2.382h.404v-.505h-.404v.505zm0 2.704h.404v-2.281h-.404v2.281zm3.193-.767h-.424c-.101.262-.364.444-.687.444-.445 0-.809-.343-.809-.807s.344-.807.809-.807c.323 0 .586.182.687.444h.424c-.121-.484-.566-.828-1.112-.828a1.19 1.19 0 0 0-1.213 1.211c0 .686.505 1.211 1.213 1.211.525-.04.99-.383 1.112-.868zm1.253-1.574c-.505 0-.889.323-.889.787h.384c0-.283.222-.404.485-.404s.505.141.505.505v.323c-.142-.161-.384-.262-.687-.262-.424 0-.808.242-.808.727s.384.727.808.727c.303 0 .525-.101.687-.303v.242h.384v-1.473c.02-.545-.364-.868-.869-.868zm-.061 2.059c.344 0 .566-.161.566-.383 0-.242-.242-.404-.566-.404-.364 0-.525.161-.525.404 0 .222.162.383.525.383zm1.496.282h.404v-3.29h-.404v3.29zm4.345-.767h-.424c-.101.262-.364.444-.687.444-.445 0-.809-.343-.809-.807s.344-.807.809-.807c.323 0 .586.182.687.444h.424c-.121-.484-.566-.828-1.112-.828a1.19 1.19 0 0 0-1.213 1.211c0 .686.505 1.211 1.213 1.211.546-.04.99-.383 1.112-.868zm.707-.182h1.88c0-.06.02-.121.02-.182 0-.646-.424-1.211-1.132-1.211s-1.192.525-1.192 1.211.465 1.211 1.192 1.211c.505 0 .91-.283 1.031-.686h-.425c-.101.182-.323.343-.626.343-.364-.04-.667-.283-.748-.686zm0-.363h1.496c-.061-.444-.384-.666-.728-.666a.75.75 0 0 0-.768.666zm3.416-1.029a.8.8 0 0 0-.687.343v-.282h-.405v2.281h.405v-1.312c0-.484.283-.666.566-.666s.485.161.485.505v1.473h.404v-1.493c0-.525-.344-.848-.768-.848zm2.405.061h-.445v-.727h-.404v.727h-.445v.383h.445v1.897h.404v-1.897h.445v-.383zm.788.343v-.343h-.404v2.281h.404v-1.231c0-.525.344-.706.687-.686v-.424c-.283.02-.525.121-.687.404zm1.233.989h1.88c0-.06.02-.121.02-.182 0-.646-.425-1.211-1.132-1.211s-1.192.525-1.192 1.211.464 1.211 1.192 1.211c.505 0 .909-.283 1.031-.686h-.425c-.101.182-.323.343-.626.343-.364-.04-.687-.283-.748-.686zm0-.363h1.496c-.061-.444-.384-.666-.728-.666a.75.75 0 0 0-.768.666zm-27.487-9.203h3.193l.041-.101.02.101h3.173v-.303h-6.751v6.358h6.751v-.646h-.687l-.344-.323h1.011v-.323h-1.354l-.303-.282c-.364-.162-.647-.464-.889-.848a1.15 1.15 0 0 0-.162-.141l-.081-.081c-.566-.484-1.193-.848-1.597-.989-.667.868-1.294 1.332-1.455 1.393-.121.04-.283-.121-.202-.202.202-.202 1.192-.868 1.435-1.191l.061-.06-.101-.04.121.02c.101-.101.182-.202.263-.303l-.142-.121h.242a3.08 3.08 0 0 0 .222-.323h-.788l-.344-.323h1.314c.061-.101.101-.202.162-.323h-1.819l-.344-.323h2.284c.04-.101.081-.202.121-.323h-2.708l-.344-.303zm3.315.303l.061.323h3.052v-.323h-3.113zm-.384.646c-.04.101-.101.202-.162.323h.303c-.02-.121-.04-.222-.061-.323h-.081zm.526 0c.02.101.061.222.081.323h2.89v-.323h-2.971zm-.869.626c-.061.101-.121.202-.202.323h.849c-.02-.101-.061-.222-.081-.323h-.566zm1.031 0c.04.101.061.222.101.323h2.708v-.323h-2.809zm-1.374.525c-.061.101-.121.182-.182.262.202.06.485.141.768.282l-.121-.121h.707c-.041-.101-.061-.202-.101-.323h-.95l-.121-.101zm1.597.121c.04.101.081.222.121.323h2.466v-.323h-2.587zm-.586.626c.101.06.222.121.323.182l-.061-.182h-.263zm.849 0c.061.121.101.222.162.323h2.163v-.323h-2.324zm.344.646c.081.121.142.222.222.323h1.758v-.323h-1.981zm.485.626c.121.121.242.242.344.323h1.152v-.323h-1.496zm12.127-6.64v8.558h2.486v-1.958l.485-.363 1.597 2.321h2.728l-2.627-3.774 2.627-2.584h-2.829l-2.041 1.998v-4.198h-2.425zm9.418 2.2h-1.071v1.716h1.071l-.02 4.642h2.911v-4.642h2.081v-1.716h-2.061v-.06c.04-.323.263-.525.808-.525h1.253v-1.594h-1.414c-2.406 0-3.436.706-3.558 2.18zm-17.927 0v1.716h3.901c.505 0 .768.182.768.605h-3.618c-.687.04-1.395.444-1.415 1.09v1.877c.101.545.687 1.09 1.637 1.09h4.507c1.051 0 1.657-.282 1.657-1.271v-3.189c0-.787-.606-1.897-2.506-1.897l-4.931-.02zm2.708 3.916c-.222 0-.404.162-.404.383s.182.384.404.384h1.597c.222 0 .384-.182.404-.384v-.383h-2.001zm21.605-3.916v1.716h3.901c.505 0 .768.182.768.605h-3.618c-.687.04-1.394.444-1.415 1.09v1.877c.101.545.687 1.09 1.637 1.09h4.507c1.051 0 1.658-.282 1.658-1.271v-3.189c0-.787-.607-1.897-2.506-1.897l-4.932-.02zm2.729 3.916c-.223 0-.405.162-.405.383s.182.384.405.384h1.596c.223 0 .384-.182.404-.384v-.383h-2zM90.038 45.9h-2.627l-.384 1.534c-.182.787-.384 1.554-.506 2.341-.121-.787-.283-1.534-.465-2.301l-.384-1.574h-2.688v6.095h1.759v-1.171c0-1.393 0-1.756-.061-3.209l1.152 4.38h1.395l1.152-4.38c-.041 1.15-.061 2.301-.061 3.471v.908h1.758V45.9h-.04zm6.063 0h-5.052v6.095h5.133v-1.554h-3.294v-.888h2.91v-1.413h-2.91v-.767h3.213V45.9zm1.011 0v6.095H99.8c2.001 0 3.112-1.029 3.112-3.068 0-1.897-1.212-3.027-3.072-3.027h-2.728zm1.819 1.534v3.027h.727c.91 0 1.375-.565 1.375-1.493 0-1.029-.586-1.534-1.556-1.534h-.546zm9.378 2.967H105.6V45.9h-1.859v6.095h4.588v-1.594h-.02zm2.688-4.501h-1.86v6.095h1.86V45.9zm6.487 0h-1.798v2.018c0 .464.02.949.06 1.393a8.91 8.91 0 0 0-.606-1.15l-1.314-2.281h-1.839v6.095h1.799v-2.119c0-.464 0-.928-.061-1.393.142.323.283.605.465.908l1.516 2.583h1.799V45.9h-.021zm6.044 0h-5.053v6.095h5.133v-1.554h-3.294v-.888h2.91v-1.413h-2.91v-.767h3.214V45.9z" fill="#fff"/></svg>
